X:314
T: ES KAM EIN ABENTEURER
N: E0180
O: Europa, Mitteleuropa, Deutschland
R: erzaehlendes Volks - Lied, Sage, Familien - Geschichte
M: 4/4
L: 1/16
K: G
G4 | G4d4d4e2g2 | =f4e4d4z2
e2 | =f4d4d4A2B2 | c4B4A4z2
d2 | d4d2B2G4B4 | d2c2c2B2A6
B2 | c4B2A2G4F2G2 | A6BAG4

@@@ Tune index: 3964
